X:99
T: Hej, Zilahi szereti a táncot...
M: 2/4
L: 1/4
K: F
g/f/e/d/ | g/f/e | d g/d/ | 
a/a/a/g/ | f/d/g | c d/c/ | 
d/B/d/c/ | B/A/ G | f g/d/ | 
d/B/d/c/ | B/c/d | G A/G/ | 

